svg/device/drone_line.svg

<?xml version="1.0" encoding="UTF-8"?>
<svg width="24px" height="24px" viewBox="0 0 24 24" version="1.1" xmlns="http://www.w3.org/2000/svg" xmlns:xlink="http://www.w3.org/1999/xlink">
    <title>drone_line</title>
    <g id="Icon" stroke="none" stroke-width="1" fill="none" fill-rule="evenodd">
        <g id="Device" transform="translate(-432.000000, -288.000000)" fill-rule="nonzero">
            <g id="drone_line" transform="translate(432.000000, 288.000000)">
                <path d="M24,0 L24,24 L0,24 L0,0 L24,0 Z M12.5935,23.2578 L12.5819,23.2595 L12.5109,23.295 L12.4919,23.2987 L12.4767,23.295 L12.4057,23.2595 C12.3958,23.2564 12.387,23.259 12.3821,23.2649 L12.378,23.2758 L12.3609,23.7031 L12.3659,23.7235 L12.3769,23.7357 L12.4805,23.8097 L12.4953,23.8136 L12.5071,23.8097 L12.6107,23.7357 L12.6233,23.7197 L12.6267,23.7031 L12.6096,23.2758 C12.6076,23.2657 12.601,23.2593 12.5935,23.2578 Z M12.8584,23.1453 L12.8445,23.1473 L12.6598,23.2397 L12.6499,23.2499 L12.6472,23.2611 L12.6651,23.6906 L12.6699,23.7034 L12.6784,23.7105 L12.8793,23.8032 C12.8914,23.8069 12.9022,23.803 12.9078,23.7952 L12.9118,23.7812 L12.8777,23.1665 C12.8753,23.1546 12.8674,23.147 12.8584,23.1453 Z M12.143,23.1473 C12.1332,23.1424 12.1222,23.1453 12.1156,23.1526 L12.1099,23.1665 L12.0758,23.7812 C12.0751,23.7927 12.0828,23.8019 12.0926,23.8046 L12.1083,23.8032 L12.3092,23.7105 L12.3186,23.7024 L12.3225,23.6906 L12.3404,23.2611 L12.3372,23.2485 L12.3278,23.2397 L12.143,23.1473 Z" id="MingCute"></path>
                <path d="M6.94289,13.8375 C7.11379357,14.3210071 6.89066847,14.8481439 6.44101192,15.068303 L6.3333,15.1135 C5.55515,15.3886 5.00005,16.1307 5.00005,17 C5.00005,18.1046 5.89548,19 7.00005,19 C7.81497187,19 8.51820234,18.5121191 8.82954884,17.8099994 L8.88651,17.6668 C9.07055,17.146 9.64188,16.8731 10.1626,17.0572 C10.6833,17.2412 10.9562,17.8125 10.7722,18.3332 C10.2235,19.8855 8.74324,21 7.00005,21 C4.79091,21 3.00005,19.2091 3.00005,17 C3.00005,15.2568 4.11456,13.7765 5.66681,13.2279 C6.18752,13.0438 6.75884,13.3167 6.94289,13.8375 Z M17.0572,13.8374 C17.2412,13.3167 17.8125,13.0438 18.3332,13.2278 C19.8855,13.7765 21,15.2568 21,16.9999 C21,19.2091 19.2091,20.9999 17,20.9999 C15.2568,20.9999 13.7765,19.8854 13.2279,18.3332 C13.0438,17.8125 13.3167,17.2412 13.8375,17.0571 C14.3210071,16.8862429 14.8481439,17.1093454 15.068303,17.5589905 L15.1135,17.6667 C15.3886,18.4448 16.1307,18.9999 17,18.9999 C18.1046,18.9999 19,18.1045 19,16.9999 C19,16.185025 18.5121191,15.4817711 17.8099994,15.1704544 L17.6668,15.1135 C17.146,14.9294 16.8731,14.3581 17.0572,13.8374 Z M8.11394,6.71065 L10.7721,8.77812 C11.4943,9.33985 12.5057,9.33985 13.2279,8.77812 L15.8861,6.71065 C16.2841,6.40102 16.8505,6.43628 17.2071,6.79289 C17.5637,7.1495 17.599,7.71585 17.2894,8.11394 L15.2219,10.7721 C14.6602,11.4943 14.6602,12.5057 15.2219,13.2279 L17.2894,15.8861 C17.599,16.2841 17.5637,16.8505 17.2071,17.2071 C16.8505,17.5637 16.2841,17.599 15.8861,17.2894 L13.2279,15.2219 C12.5057,14.6602 11.4943,14.6602 10.7721,15.2219 L8.11394,17.2894 C7.71585,17.599 7.1495,17.5637 6.79289,17.2071 C6.43628,16.8505 6.40102,16.2841 6.71065,15.8861 L8.77812,13.2279 C9.33985,12.5057 9.33985,11.4943 8.77812,10.7721 L6.71065,8.11394 C6.40102,7.71585 6.43628,7.1495 6.79289,6.79289 C7.1495,6.43628 7.71585,6.40102 8.11394,6.71065 Z M12.9038,11.0962 C12.3095,11.2338 11.6905,11.2338 11.0962,11.0962 C11.2338,11.6905 11.2338,12.3095 11.0962,12.9038 C11.6905,12.7662 12.3095,12.7662 12.9038,12.9038 C12.7662,12.3095 12.7662,11.6905 12.9038,11.0962 Z M16.9999,3 C19.2091,3 20.9999,4.79086 20.9999,7 C20.9999,8.74319 19.8854,10.2235 18.3332,10.7721 C17.8125,10.9562 17.2412,10.6833 17.0571,10.1625 C16.8862429,9.67901143 17.1093454,9.15185878 17.5589905,8.9316573 L17.6667,8.88645 C18.4448,8.61142 18.9999,7.86925 18.9999,7 C18.9999,5.89543 18.1045,5 16.9999,5 C16.185025,5 15.4817711,5.48788086 15.1704544,6.19004181 L15.1135,6.33325 C14.9294,6.85396 14.3581,7.12689 13.8374,6.94284 C13.3167,6.75879 13.0438,6.18747 13.2278,5.66675 C13.7765,4.11451 15.2568,3 16.9999,3 Z M7,3.00005 C8.74319,3.00005 10.2235,4.11456 10.7721,5.66681 C10.9562,6.18752 10.6833,6.75885 10.1625,6.94289 C9.67901143,7.11379357 9.15185878,6.89066847 8.9316573,6.44101192 L8.88645,6.3333 C8.61142,5.55516 7.86925,5.00005 7,5.00005 C5.89543,5.00005 5,5.89548 5,7.00005 C5,7.81497187 5.48788086,8.51820234 6.19004181,8.82954884 L6.33325,8.88651 C6.85396,9.07055 7.12689,9.64188 6.94284,10.1626 C6.75879,10.6833 6.18747,10.9562 5.66675,10.7722 C4.11451,10.2235 3,8.74324 3,7.00005 C3,4.79091 4.79086,3.00005 7,3.00005 Z" id="形状" fill="#09244B"></path>
            </g>
        </g>
    </g>
</svg>

<svg xmlns="http://www.w3.org/2000/svg" width="24" height="24"><g fill="none" fill-rule="nonzero"><path d="M24 0v24H0V0h24ZM12.594 23.258l-.012.002-.071.035-.02.004-.014-.004-.071-.036c-.01-.003-.019 0-.024.006l-.004.01-.017.428.005.02.01.013.104.074.015.004.012-.004.104-.074.012-.016.004-.017-.017-.427c-.002-.01-.009-.017-.016-.018Zm.264-.113-.014.002-.184.093-.01.01-.003.011.018.43.005.012.008.008.201.092c.012.004.023 0 .029-.008l.004-.014-.034-.614c-.003-.012-.01-.02-.02-.022Zm-.715.002a.023.023 0 0 0-.027.006l-.006.014-.034.614c0 .012.007.02.017.024l.015-.002.201-.093.01-.008.003-.011.018-.43-.003-.012-.01-.01-.184-.092Z"/><path fill="#09244B" d="M6.943 13.838a1 1 0 0 1-.502 1.23l-.108.046A2.001 2.001 0 1 0 8.83 17.81l.057-.143a1 1 0 1 1 1.885.666 4.001 4.001 0 1 1-5.105-5.105 1 1 0 0 1 1.276.61Zm10.114 0a1 1 0 0 1 1.276-.61 4.001 4.001 0 1 1-5.105 5.105 1 1 0 0 1 1.84-.774l.046.108a2.001 2.001 0 1 0 2.696-2.497l-.143-.056a1 1 0 0 1-.61-1.277ZM8.114 6.71l2.658 2.067a2 2 0 0 0 2.456 0l2.658-2.067a1 1 0 0 1 1.403 1.403l-2.067 2.658a2 2 0 0 0 0 2.456l2.067 2.658a1 1 0 0 1-1.403 1.403l-2.658-2.067a2 2 0 0 0-2.456 0l-2.658 2.067a1 1 0 0 1-1.403-1.403l2.067-2.658a2 2 0 0 0 0-2.456L6.711 8.114A1 1 0 0 1 8.114 6.71Zm4.79 4.385a4.01 4.01 0 0 1-1.808 0 4.01 4.01 0 0 1 0 1.808 4.01 4.01 0 0 1 1.808 0 4.01 4.01 0 0 1 0-1.808ZM17 3a4 4 0 0 1 1.333 7.772 1 1 0 0 1-.774-1.84l.108-.046A2.001 2.001 0 1 0 15.17 6.19l-.056.143a1 1 0 0 1-1.886-.666A4.001 4.001 0 0 1 17 3ZM7 3a4.001 4.001 0 0 1 3.772 2.667 1 1 0 0 1-1.84.774l-.046-.108A2.001 2.001 0 1 0 6.19 8.83l.143.057a1 1 0 0 1-.666 1.885A4.001 4.001 0 0 1 7 3Z"/></g></svg>
